X:656
T:Mr. Bernard
R:Reel
C:Nathaniel Gow
B:The Athole Collection
M:C|
L:1/8
K:F
G|~F2 CF AFEF|DFCF A,FCF|~F2 CF AFEF|GA~BA GG,G,:|
d|~c2 df cdAB|cfAB caAB|~c2 df cdAc|~BGAF GG,G,d|~cfef dfcf|
cfef afef|dbca BgAf|~BGAF GG,G,||

